svg/fluentui-system-icons/ic_fluent_calendar_arrow_down_24_filled.svg

<svg width="24" height="24" viewBox="0 0 24 24" fill="none" xmlns="http://www.w3.org/2000/svg">
<path d="M21 8.5V12.0218C19.9897 11.375 18.7886 11 17.5 11C13.9101 11 11 13.9101 11 17.5C11 18.7886 11.375 19.9897 12.0218 21H6.25C4.45507 21 3 19.5449 3 17.75V8.5H21ZM17.75 3C19.5449 3 21 4.45507 21 6.25V7H3V6.25C3 4.45507 4.45507 3 6.25 3H17.75ZM23 17.5C23 20.5376 20.5376 23 17.5 23C14.4624 23 12 20.5376 12 17.5C12 14.4624 14.4624 12 17.5 12C20.5376 12 23 14.4624 23 17.5ZM18 14.5C18 14.2239 17.7761 14 17.5 14C17.2239 14 17 14.2239 17 14.5V19.2929L15.3536 17.6464C15.1583 17.4512 14.8417 17.4512 14.6464 17.6464C14.4512 17.8417 14.4512 18.1583 14.6464 18.3536L17.1464 20.8536C17.3417 21.0488 17.6583 21.0488 17.8536 20.8536L20.3536 18.3536C20.5488 18.1583 20.5488 17.8417 20.3536 17.6464C20.1583 17.4512 19.8417 17.4512 19.6464 17.6464L18 19.2929V14.5Z" fill="#212121"/>
</svg>

<svg xmlns="http://www.w3.org/2000/svg" width="24" height="24"><path d="M21 8.5v3.522A6.5 6.5 0 0 0 12.022 21H6.25A3.25 3.25 0 0 1 3 17.75V8.5h18ZM17.75 3A3.25 3.25 0 0 1 21 6.25V7H3v-.75A3.25 3.25 0 0 1 6.25 3h11.5ZM23 17.5a5.5 5.5 0 1 1-11 0 5.5 5.5 0 0 1 11 0Zm-5-3a.5.5 0 0 0-1 0v4.793l-1.646-1.647a.5.5 0 0 0-.708.708l2.5 2.5a.5.5 0 0 0 .708 0l2.5-2.5a.5.5 0 0 0-.708-.708L18 19.293V14.5Z"/></svg>
